packages/icons/src/ecr-ci-step-inverse.svg

<svg fill="none" viewBox="0 0 41 41" xmlns="http://www.w3.org/2000/svg" xmlns:xlink="http://www.w3.org/1999/xlink"><clipPath id="a"><path d="m.661621.967606h40v40h-40z"/></clipPath><g clip-path="url(#a)" clip-rule="evenodd" fill-rule="evenodd"><path d="m39.8596 20.9676c-.4129 10.2416-8.8554 18.4272-19.1977 18.4272-10.3424 0-18.78484-8.1856-19.19783-18.4272-.01052.2609-.01583.523-.01583.7864 0 10.6058 8.60786 19.2137 19.21366 19.2137 10.6057 0 19.2136-8.6079 19.2136-19.2137 0-.2634-.0053-.5255-.0159-.7864z" fill="#d9dae5"/><path d="m20.6619 39.3948c10.6057 0 19.2136-8.6078 19.2136-19.2136 0-10.60572-8.6079-19.213594-19.2136-19.213594-10.6058 0-19.21366 8.607874-19.21366 19.213594 0 10.6058 8.60786 19.2136 19.21366 19.2136zm-.0001-35.98304c-1.7853 0-3.2518 1.46652-3.2518 3.25186s1.4665 3.25186 3.2518 3.25186c1.7854 0 3.2519-1.46652 3.2519-3.25186 0-1.80659-1.4665-3.25186-3.2519-3.25186zm-2.203 6.43562.8416 7.31672c.4059-.2176.8695-.3411 1.3615-.3411.4845 0 .9415.1198 1.343.3313l.8535-7.30248c-.6252.42898-1.3818.67998-2.1966.67998-.8176 0-1.5766-.2528-2.203-.68442zm4.6837 8.38352c.2602.4337.4099.941.4099 1.4827 0 .9793-.4894 1.8464-1.2365 2.3694l5.4235.5212 4.0383 3.9108.9776-.8077-3.5919-5.3773zm-2.2084 3.7194-.2723-.0262-.2718.026c-1.1073-.134-1.9811-1.0761-1.9811-2.2365 0-1.2328.999-2.253 2.253-2.253 1.2327 0 2.2529 1.0202 2.2529 2.253 0 1.142-.8574 2.1017-1.9807 2.2367zm-1.9269.1323-5.4442.5216-4.01702 3.9108-.97768-.8077 3.5919-5.3773 6.021-2.0992c-.2602.4338-.4099.9411-.4099 1.4828 0 .9791.4892 1.8459 1.2359 2.369zm2.8236-15.44023c0 .63762-.5314 1.16897-1.169 1.16897s-1.169-.53135-1.169-1.16897.5314-1.16897 1.169-1.16897c.6376.02125 1.169.53135 1.169 1.16897zm-.3825 13.07123c0 .4463-.3613.7864-.7864.7864-.4464 0-.7864-.3614-.7864-.7864 0-.4464.3613-.7864.7864-.7864.2075.0032.4056.0872.5524.2339.1468.1468.2307.3449.234.5525zm7.5026 5.9299h-16.5781v9.1605h16.5781zm-14.4953.744h-1.254v7.6727h1.254zm2.2742 0h-1.254v7.6727h1.254zm2.2742 0h-1.254v7.6727h1.254zm2.2741 0h-1.2539v7.6727h1.2539zm2.2955 0h-1.2753v7.6727h1.2753zm2.2742 0h-1.2753v7.6727h1.2753zm2.2741 0h-1.2752v7.6727h1.2752z" fill="#fff"/></g></svg>

<svg viewBox="0 0 41 41" fill="none" xmlns="http://www.w3.org/2000/svg">
<g clip-path="url(#clip0_2952_318977)">
<path fill-rule="evenodd" clip-rule="evenodd" d="M39.8596 20.9676C39.4467 31.2092 31.0042 39.3948 20.6619 39.3948C10.3195 39.3948 1.87706 31.2092 1.46407 20.9676C1.45355 21.2285 1.44824 21.4906 1.44824 21.754C1.44824 32.3598 10.0561 40.9677 20.6619 40.9677C31.2676 40.9677 39.8755 32.3598 39.8755 21.754C39.8755 21.4906 39.8702 21.2285 39.8596 20.9676Z" fill="#D9DAE5"/>
<path fill-rule="evenodd" clip-rule="evenodd" d="M20.6619 39.3948C31.2676 39.3948 39.8755 30.787 39.8755 20.1812C39.8755 9.57548 31.2676 0.967606 20.6619 0.967606C10.0561 0.967606 1.44824 9.57548 1.44824 20.1812C1.44824 30.787 10.0561 39.3948 20.6619 39.3948ZM20.6618 3.41176C18.8765 3.41176 17.41 4.87828 17.41 6.66362C17.41 8.44896 18.8765 9.91548 20.6618 9.91548C22.4472 9.91548 23.9137 8.44896 23.9137 6.66362C23.9137 4.85703 22.4472 3.41176 20.6618 3.41176ZM18.4588 9.84738L19.3004 17.1641C19.7063 16.9465 20.1699 16.823 20.6619 16.823C21.1464 16.823 21.6034 16.9428 22.0049 17.1543L22.8584 9.85182C22.2332 10.2808 21.4766 10.5318 20.6618 10.5318C19.8442 10.5318 19.0852 10.279 18.4588 9.84738ZM23.1425 18.2309C23.4027 18.6646 23.5524 19.1719 23.5524 19.7136C23.5524 20.6929 23.063 21.56 22.3159 22.083L27.7394 22.6042L31.7777 26.515L32.7553 25.7073L29.1634 20.33L23.1425 18.2309ZM20.9341 21.9503L20.6618 21.9241L20.39 21.9501C19.2827 21.8161 18.4089 20.874 18.4089 19.7136C18.4089 18.4808 19.4079 17.4606 20.6619 17.4606C21.8946 17.4606 22.9148 18.4808 22.9148 19.7136C22.9148 20.8556 22.0574 21.8153 20.9341 21.9503ZM19.0072 22.0826L13.563 22.6042L9.54598 26.515L8.5683 25.7073L12.1602 20.33L18.1812 18.2308C17.921 18.6646 17.7713 19.1719 17.7713 19.7136C17.7713 20.6927 18.2605 21.5595 19.0072 22.0826ZM21.8308 6.64237C21.8308 7.27999 21.2994 7.81134 20.6618 7.81134C20.0242 7.81134 19.4928 7.27999 19.4928 6.64237C19.4928 6.00475 20.0242 5.4734 20.6618 5.4734C21.2994 5.49465 21.8308 6.00475 21.8308 6.64237ZM21.4483 19.7136C21.4483 20.1599 21.087 20.5 20.6619 20.5C20.2155 20.5 19.8755 20.1386 19.8755 19.7136C19.8755 19.2672 20.2368 18.9272 20.6619 18.9272C20.8694 18.9304 21.0675 19.0144 21.2143 19.1611C21.3611 19.3079 21.445 19.506 21.4483 19.7136ZM28.9509 25.6435H12.3728V34.804H28.9509V25.6435ZM14.4556 26.3875H13.2016V34.0602H14.4556V26.3875ZM16.7298 26.3875H15.4758V34.0602H16.7298V26.3875ZM19.004 26.3875H17.75V34.0602H19.004V26.3875ZM21.2781 26.3875H20.0242V34.0602H21.2781V26.3875ZM23.5736 26.3875H22.2983V34.0602H23.5736V26.3875ZM25.8478 26.3875H24.5725V34.0602H25.8478V26.3875ZM28.1219 26.3875H26.8467V34.0602H28.1219V26.3875Z" fill="white"/>
</g>
<defs>
<clipPath id="clip0_2952_318977">
<rect width="40" height="40" fill="white" transform="translate(0.661621 0.967606)"/>
</clipPath>
</defs>
</svg>
